X:185
T:Pipe on the Hob
R:jig
H:There is another tune by the same name, #29
D:Bothy Band: Out of the Wind, into the Sun
Z:id:hn-jig-185
M:6/8
K:Ador
c3 edc|edc BAG|~A3 ~g3|eae ged|c3 edc|edc deg|age dBe|1 ~A3 A2B:|2 ~A3 A2f||
|:~g3 gea|age edB|~A3 ~g3|aba gef|~g3 gea|age deg|age dBe|1 ~A3 A2f:|2 ~A3 A2B||
|:c3 dcd|ecA AGE|c3 dcd|ecA A2B|c3 dcd|ede gab|age dBe|~A3 A2B:|
P:Variations:
|:c3 edc|edc BAG|~A3 ~g3|eae ged|c3 edc|edc deg|age dBe|1 ~A3 A2B:|2 ~A3 A2f||
|:~g3 gea|age edB|~A3 ~g3|eaa gef|~g3 gea|age deg|age dBe|1 ~A3 A2f:|2 ~A3 A2B||
|:c3 dcd|ecA AGE|c3 dcd|ecA A2B|c3 dcd|ede gab|age dBe|~A3 A2B:|

